X: 1
T: Charming Lovely Nancy
M: 12/8
L: 1/8
R: slide
K: Gmaj
G2E D2E G2A B3|cBA B2G A2G EDE|G2E D2E G2A B3|d2B ABA G3 G3:|
efg d2B c2e d3|d2B A2G E2A A3|efg d2B c2e d3|d2B ABA G3 G3|
efg d2B c2e d3|d2B A2G E2A ABA|G2E D2E G2A B3|d2B ABA G3 G3|
